assests/under-hills.svg

<?xml version="1.0" encoding="UTF-8" standalone="no"?>
<svg
   xmlns:dc="http://purl.org/dc/elements/1.1/"
   xmlns:cc="http://creativecommons.org/ns#"
   xmlns:rdf="http://www.w3.org/1999/02/22-rdf-syntax-ns#"
   xmlns:svg="http://www.w3.org/2000/svg"
   xmlns="http://www.w3.org/2000/svg"
   xmlns:sodipodi="http://sodipodi.sourceforge.net/DTD/sodipodi-0.dtd"
   xmlns:inkscape="http://www.inkscape.org/namespaces/inkscape"
   id="visual"
   viewBox="0 0 900 129.43063"
   width="900"
   height="129.43063"
   version="1.1"
   sodipodi:docname="under-hills.svg"
   inkscape:version="1.0.2-2 (e86c870879, 2021-01-15)"
   inkscape:export-filename="D:\Quakers Walk Committee\assests\under-hills.png"
   inkscape:export-xdpi="96"
   inkscape:export-ydpi="96">
  <metadata
     id="metadata848">
    <rdf:RDF>
      <cc:Work
         rdf:about="">
        <dc:format>image/svg+xml</dc:format>
        <dc:type
           rdf:resource="http://purl.org/dc/dcmitype/StillImage" />
        <dc:title />
      </cc:Work>
    </rdf:RDF>
  </metadata>
  <sodipodi:namedview
     pagecolor="#ffffff"
     bordercolor="#666666"
     borderopacity="1"
     objecttolerance="10"
     gridtolerance="10"
     guidetolerance="10"
     inkscape:pageopacity="0"
     inkscape:pageshadow="2"
     inkscape:window-width="1920"
     inkscape:window-height="1057"
     id="namedview846"
     showgrid="false"
     fit-margin-top="0"
     fit-margin-left="0"
     fit-margin-right="0"
     fit-margin-bottom="0"
     inkscape:zoom="1.225"
     inkscape:cx="450"
     inkscape:cy="300"
     inkscape:window-x="-8"
     inkscape:window-y="-8"
     inkscape:window-maximized="1"
     inkscape:current-layer="visual"
     inkscape:document-rotation="0" />
  <defs
     id="defs873" />
  <path
     d="m 0,99.783812 18.8,-0.176609 c 18.9,-0.0883 56.5,-0.441521 94,2.384217 37.5,2.82573 74.9,8.65382 112.4,11.21464 37.5,2.47252 75.1,1.58948 112.6,-0.17661 37.5,-1.76608 74.9,-4.41521 112.4,-3.09065 37.5,1.32457 75.1,6.62282 112.6,11.47955 37.5,4.85674 74.9,9.27195 112.4,7.68248 37.5,-1.67779 75.1,-9.27195 112.6,-12.09769 37.5,-2.82573 74.9,-0.70643 93.5,0.26491 l 18.7,1.05966 V 0 H 881.3 C 862.7,0 825.3,0 787.8,0 750.3,0 712.7,0 675.2,0 637.7,0 600.3,0 562.8,0 525.3,0 487.7,0 450.2,0 412.7,0 375.3,0 337.8,0 300.3,0 262.7,0 225.2,0 187.7,0 150.3,0 112.8,0 75.3,0 37.7,0 18.8,0 H 0 Z"
     fill="#80ff80"
     id="path860"
     style="stroke-width:1" />
  <path
     d="M 0,95.899815 18.8,95.63827 c 18.9,-0.348727 56.5,-0.871816 94,-2.528268 37.5,-1.569269 74.9,-4.184719 112.4,-2.876994 37.5,1.307725 75.1,6.538623 112.6,8.45662 37.5,1.830812 74.9,0.435908 112.4,-0.610272 37.5,-1.04618 75.1,-1.569269 112.6,-4.620627 37.5,-3.051358 74.9,-8.630984 112.4,-10.897706 37.5,-2.353905 75.1,-1.482088 112.6,2.876994 37.5,4.359083 74.9,12.205431 93.5,16.128603 L 900,105.4898 V 0 H 881.3 C 862.7,0 825.3,0 787.8,0 750.3,0 712.7,0 675.2,0 637.7,0 600.3,0 562.8,0 525.3,0 487.7,0 450.2,0 412.7,0 375.3,0 337.8,0 300.3,0 262.7,0 225.2,0 187.7,0 150.3,0 112.8,0 75.3,0 37.7,0 18.8,0 H 0 Z"
     fill="#69d660"
     id="path862"
     style="stroke-width:1" />
  <path
     d="m 0,79.230053 18.8,0.25558 c 18.9,0.340775 56.5,0.851937 94,-0.681548 37.5,-1.533485 74.9,-5.282004 112.4,-7.241457 37.5,-1.959453 75.1,-2.300227 112.6,-2.981776 37.5,-0.681549 74.9,-1.874259 112.4,-3.578131 37.5,-1.703872 75.1,-3.918906 112.6,-1.277904 37.5,2.726195 74.9,10.393619 112.4,11.671523 37.5,1.277904 75.1,-3.833712 112.6,-7.497037 37.5,-3.748518 74.9,-5.963552 93.5,-7.156263 L 900,59.635523 V 0 H 881.3 C 862.7,0 825.3,0 787.8,0 750.3,0 712.7,0 675.2,0 637.7,0 600.3,0 562.8,0 525.3,0 487.7,0 450.2,0 412.7,0 375.3,0 337.8,0 300.3,0 262.7,0 225.2,0 187.7,0 150.3,0 112.8,0 75.3,0 37.7,0 18.8,0 H 0 Z"
     fill="#52af41"
     id="path864"
     style="stroke-width:1" />
  <path
     d="m 0,22 18.8,3.3 c 18.9,3.4 56.5,10 94,9.5 37.5,-0.5 74.9,-8.1 112.4,-9.5 37.5,-1.3 75.1,3.7 112.6,4.5 37.5,0.9 74.9,-2.5 112.4,-3 37.5,-0.5 75.1,1.9 112.6,2.7 37.5,0.8 74.9,0.2 112.4,1.2 37.5,1 75.1,3.6 112.6,4.1 37.5,0.5 74.9,-1.1 93.5,-2 L 900,32 V 0 H 881.3 C 862.7,0 825.3,0 787.8,0 750.3,0 712.7,0 675.2,0 637.7,0 600.3,0 562.8,0 525.3,0 487.7,0 450.2,0 412.7,0 375.3,0 337.8,0 300.3,0 262.7,0 225.2,0 187.7,0 150.3,0 112.8,0 75.3,0 37.7,0 18.8,0 H 0 Z"
     fill="#226600"
     id="path868"
     style="fill:#458e45;fill-opacity:1" />
</svg>

<?xml version="1.0" encoding="UTF-8" standalone="no"?>
<svg
   xmlns:dc="http://purl.org/dc/elements/1.1/"
   xmlns:cc="http://creativecommons.org/ns#"
   xmlns:rdf="http://www.w3.org/1999/02/22-rdf-syntax-ns#"
   xmlns:svg="http://www.w3.org/2000/svg"
   xmlns="http://www.w3.org/2000/svg"
   xmlns:sodipodi="http://sodipodi.sourceforge.net/DTD/sodipodi-0.dtd"
   xmlns:inkscape="http://www.inkscape.org/namespaces/inkscape"
   id="visual"
   viewBox="0 0 900 600"
   width="900"
   height="600"
   version="1.1"
   sodipodi:docname="under-hills.svg"
   inkscape:version="1.0.2-2 (e86c870879, 2021-01-15)">
  <metadata
     id="metadata875">
    <rdf:RDF>
      <cc:Work
         rdf:about="">
        <dc:format>image/svg+xml</dc:format>
        <dc:type
           rdf:resource="http://purl.org/dc/dcmitype/StillImage" />
      </cc:Work>
    </rdf:RDF>
  </metadata>
  <defs
     id="defs873" />
  <sodipodi:namedview
     pagecolor="#ffffff"
     bordercolor="#666666"
     borderopacity="1"
     objecttolerance="10"
     gridtolerance="10"
     guidetolerance="10"
     inkscape:pageopacity="0"
     inkscape:pageshadow="2"
     inkscape:window-width="1920"
     inkscape:window-height="1057"
     id="namedview871"
     showgrid="false"
     inkscape:zoom="1.225"
     inkscape:cx="432.04082"
     inkscape:cy="300"
     inkscape:window-x="-8"
     inkscape:window-y="-8"
     inkscape:window-maximized="1"
     inkscape:current-layer="visual" />
  <path
     d="m 0,99.783812 18.8,-0.176609 c 18.9,-0.0883 56.5,-0.441521 94,2.384217 37.5,2.82573 74.9,8.65382 112.4,11.21464 37.5,2.47252 75.1,1.58948 112.6,-0.17661 37.5,-1.76608 74.9,-4.41521 112.4,-3.09065 37.5,1.32457 75.1,6.62282 112.6,11.47955 37.5,4.85674 74.9,9.27195 112.4,7.68248 37.5,-1.67779 75.1,-9.27195 112.6,-12.09769 37.5,-2.82573 74.9,-0.70643 93.5,0.26491 l 18.7,1.05966 V 0 H 881.3 C 862.7,0 825.3,0 787.8,0 750.3,0 712.7,0 675.2,0 637.7,0 600.3,0 562.8,0 525.3,0 487.7,0 450.2,0 412.7,0 375.3,0 337.8,0 300.3,0 262.7,0 225.2,0 187.7,0 150.3,0 112.8,0 75.3,0 37.7,0 18.8,0 H 0 Z"
     fill="#80ff80"
     id="path860"
     style="stroke-width:1" />
  <path
     d="M 0,95.899815 18.8,95.63827 c 18.9,-0.348727 56.5,-0.871816 94,-2.528268 37.5,-1.569269 74.9,-4.184719 112.4,-2.876994 37.5,1.307725 75.1,6.538623 112.6,8.45662 37.5,1.830812 74.9,0.435908 112.4,-0.610272 37.5,-1.04618 75.1,-1.569269 112.6,-4.620627 37.5,-3.051358 74.9,-8.630984 112.4,-10.897706 37.5,-2.353905 75.1,-1.482088 112.6,2.876994 37.5,4.359083 74.9,12.205431 93.5,16.128603 L 900,105.4898 V 0 H 881.3 C 862.7,0 825.3,0 787.8,0 750.3,0 712.7,0 675.2,0 637.7,0 600.3,0 562.8,0 525.3,0 487.7,0 450.2,0 412.7,0 375.3,0 337.8,0 300.3,0 262.7,0 225.2,0 187.7,0 150.3,0 112.8,0 75.3,0 37.7,0 18.8,0 H 0 Z"
     fill="#69d660"
     id="path862"
     style="stroke-width:1" />
  <path
     d="m 0,79.230053 18.8,0.25558 c 18.9,0.340775 56.5,0.851937 94,-0.681548 37.5,-1.533485 74.9,-5.282004 112.4,-7.241457 37.5,-1.959453 75.1,-2.300227 112.6,-2.981776 37.5,-0.681549 74.9,-1.874259 112.4,-3.578131 37.5,-1.703872 75.1,-3.918906 112.6,-1.277904 37.5,2.726195 74.9,10.393619 112.4,11.671523 37.5,1.277904 75.1,-3.833712 112.6,-7.497037 37.5,-3.748518 74.9,-5.963552 93.5,-7.156263 L 900,59.635523 V 0 H 881.3 C 862.7,0 825.3,0 787.8,0 750.3,0 712.7,0 675.2,0 637.7,0 600.3,0 562.8,0 525.3,0 487.7,0 450.2,0 412.7,0 375.3,0 337.8,0 300.3,0 262.7,0 225.2,0 187.7,0 150.3,0 112.8,0 75.3,0 37.7,0 18.8,0 H 0 Z"
     fill="#52af41"
     id="path864"
     style="stroke-width:1" />
  <path
     d="M0 22L18.8 25.3C37.7 28.7 75.3 35.3 112.8 34.8C150.3 34.3 187.7 26.7 225.2 25.3C262.7 24 300.3 29 337.8 29.8C375.3 30.7 412.7 27.3 450.2 26.8C487.7 26.3 525.3 28.7 562.8 29.5C600.3 30.3 637.7 29.7 675.2 30.7C712.7 31.7 750.3 34.3 787.8 34.8C825.3 35.3 862.7 33.7 881.3 32.8L900 32L900 0L881.3 0C862.7 0 825.3 0 787.8 0C750.3 0 712.7 0 675.2 0C637.7 0 600.3 0 562.8 0C525.3 0 487.7 0 450.2 0C412.7 0 375.3 0 337.8 0C300.3 0 262.7 0 225.2 0C187.7 0 150.3 0 112.8 0C75.3 0 37.7 0 18.8 0L0 0Z"
     fill="#226600"
     id="path868"
     style="fill:#458e45;fill-opacity:1" />
</svg>
